src/assets/svgs/concrete.svg

<svg width="199" height="199" viewBox="0 0 199 199" fill="none" xmlns="http://www.w3.org/2000/svg">
<path d="M40 36C42.0577 35.6308 42.0577 35.6308 44.6443 35.6392C45.6231 35.6351 46.6019 35.631 47.6104 35.6267C49.2266 35.6429 49.2266 35.6429 50.8755 35.6594C52.0072 35.659 53.1389 35.6585 54.3049 35.6581C58.0602 35.6602 61.8151 35.6835 65.5703 35.707C68.1682 35.7126 70.7661 35.7169 73.364 35.7199C79.5122 35.7302 85.6603 35.7538 91.8084 35.7839C98.8071 35.8174 105.806 35.8339 112.805 35.849C127.203 35.8804 141.602 35.9332 156 36C157.999 41.1609 159.747 46.2994 161.177 51.6489C161.47 52.7295 161.47 52.7295 161.769 53.832C163.579 60.5365 165.332 67.2565 167.069 73.9803C168.227 78.4587 169.401 82.9311 170.62 87.393C171.813 91.7622 172.957 96.142 174.073 100.532C174.495 102.162 174.932 103.789 175.388 105.411C180.723 124.518 179 141.367 179 162C125.54 162 72.08 162 17 162C17 117.117 17 117.117 21.5234 100.922C21.9934 99.1025 22.4593 97.2821 22.9215 95.4607C24.1123 90.8147 25.3582 86.1854 26.6182 81.5577C27.6473 77.7397 28.6351 73.9116 29.6216 70.0824C31.6554 62.1885 33.7135 54.3007 35.8452 46.4326C36.0344 45.7192 36.2236 45.0058 36.4185 44.2708C37.295 41.0736 38.1408 38.7888 40 36ZM49 49C42.4654 72.5246 36.8163 96.2875 31 120C75.22 120 119.44 120 165 120C156.943 84.2274 156.943 84.2274 147 49C114.66 49 82.32 49 49 49ZM29 133C29 138.61 29 144.22 29 150C74.54 150 120.08 150 167 150C167 144.39 167 138.78 167 133C121.46 133 75.92 133 29 133Z" fill="url(#paint0_linear_4723_489)"/>
<defs>
<linearGradient id="paint0_linear_4723_489" x1="98.1327" y1="35.6267" x2="98.1327" y2="162" gradientUnits="userSpaceOnUse">
<stop stop-color="#555451"/>
<stop offset="1" stop-color="#8D8B84"/>
</linearGradient>
</defs>
</svg>

<svg width="199" height="199" fill="none" xmlns="http://www.w3.org/2000/svg"><path d="M40 36c2.058-.37 2.058-.37 4.644-.36l2.966-.013 3.266.032h3.429c3.755.001 7.51.025 11.265.048 2.598.006 5.196.01 7.794.013 6.148.01 12.296.034 18.444.064 7 .033 13.998.05 20.997.065 14.398.031 28.797.084 43.195.151 1.999 5.16 3.747 10.3 5.177 15.649l.592 2.183c1.81 6.704 3.563 13.425 5.3 20.148 1.158 4.479 2.332 8.951 3.551 13.413a771.333 771.333 0 0 1 3.453 13.139c.422 1.63.859 3.257 1.315 4.879C180.723 124.518 179 141.367 179 162H17c0-44.883 0-44.883 4.523-61.078.47-1.82.936-3.64 1.399-5.461a963.795 963.795 0 0 1 3.696-13.903c1.03-3.818 2.017-7.646 3.004-11.476a1969.04 1969.04 0 0 1 6.223-23.65l.574-2.161C37.294 41.074 38.14 38.789 40 36Zm9 13c-6.535 23.525-12.184 47.287-18 71h134c-8.057-35.773-8.057-35.773-18-71H49Zm-20 84v17h138v-17H29Z" fill="url(#a)"/><defs><linearGradient id="a" x1="98.133" y1="35.627" x2="98.133" y2="162" gradientUnits="userSpaceOnUse"><stop stop-color="#555451"/><stop offset="1" stop-color="#8D8B84"/></linearGradient></defs></svg>
